brandFactory_export/1.Light/Documento_Archivo Illustrator_1Light.svg

<?xml version="1.0" encoding="UTF-8"?>
<svg width="24px" height="24px" viewBox="0 0 24 24" version="1.1" xmlns="http://www.w3.org/2000/svg" xmlns:xlink="http://www.w3.org/1999/xlink">
    <title>1.Light/Documento_Archivo Illustrator_1Light</title>
    <g id="Symbols" stroke="none" stroke-width="1" fill="none" fill-rule="evenodd">
        <g id="1.Light/Documento_Archivo-Illustrator_1Light" fill="#5CB615" fill-rule="nonzero">
            <path d="M16.3092437,-2.66453526e-13 C16.5277311,-2.66453526e-13 16.7327731,0.0840336134 16.8907563,0.235294118 L23.3815126,6.51764706 C23.4857143,6.62184874 23.5462185,6.75966387 23.5831933,6.90756303 C23.6067227,6.96806723 23.6235294,7.03529412 23.6235294,7.10252101 L23.6235294,22.1781513 C23.6235294,22.9613445 22.9478992,23.6235294 22.1478992,23.6235294 L7.22352941,23.6235294 C6.43697479,23.6235294 5.74453782,22.9478992 5.74453782,22.1781513 L5.78823529,18.5344538 L2.71932773,18.5344538 C1.22016807,18.5344538 2.19122498e-10,17.3142857 2.19122498e-10,15.8117647 L2.19122498e-10,10.7966387 C2.19122498e-10,9.29411765 1.22016807,8.07394958 2.71932773,8.07394958 L5.74453782,8.07394958 L5.74453782,1.44537815 C5.74453782,0.68907563 6.44705882,-2.66453526e-13 7.22352941,-2.66453526e-13 L16.3092437,-2.66453526e-13 Z M15.4789916,0.994957983 L7.22016807,0.994957983 C6.99831933,0.994957983 6.73277311,1.24033613 6.73277311,1.4487395 L6.73277311,8.07394958 L14.7798319,8.07394958 C16.2789916,8.07394958 17.4991597,9.29411765 17.4991597,10.7966387 L17.4991597,15.8117647 C17.4991597,17.3142857 16.2789916,18.5344538 14.7798319,18.5344538 L6.77983193,18.5344538 L6.73613445,22.1848739 C6.73613445,22.4033613 6.98151261,22.6319328 7.22352941,22.6319328 L22.1478992,22.6319328 C22.3966387,22.6319328 22.6319328,22.410084 22.6319328,22.1781513 L22.6319328,7.92268908 L19.5529412,7.92268908 C18.3764706,7.92268908 17.3613445,7.54285714 16.6218487,6.82352941 C15.8756303,6.10420168 15.4789916,5.11260504 15.4789916,3.96302521 L15.4789916,0.994957983 Z M14.7831933,9.06218487 L2.71932773,9.06218487 C1.76806723,9.06218487 0.991596639,9.83865546 0.991596639,10.7932773 L0.991596639,15.8084034 C0.991596639,16.7630252 1.76470588,17.5394958 2.71932773,17.5394958 L14.7831933,17.5394958 C15.7344538,17.5394958 16.5109244,16.7630252 16.5109244,15.8084034 L16.5109244,10.7932773 C16.5109244,9.83865546 15.7378151,9.06218487 14.7831933,9.06218487 Z M8.42689076,10.9983193 L10.0739496,15.5630252 L8.95798319,15.5630252 L8.57815126,14.4168067 L7.09579832,14.4168067 L6.74285714,15.5630252 L5.74789916,15.5630252 L7.28067227,10.9983193 L8.42689076,10.9983193 Z M11.6605042,10.9983193 L11.6605042,15.5630252 L10.6184874,15.5630252 L10.6184874,10.9983193 L11.6605042,10.9983193 Z M7.82857143,12.1378151 L7.81512605,12.1378151 L7.34117647,13.6605042 L8.32941176,13.6605042 L7.82857143,12.1378151 Z M16.4705882,1.21008403 L16.4705882,3.95966387 C16.4705882,4.83361345 16.7596639,5.57647059 17.3109244,6.10756303 C17.8655462,6.64201681 18.6420168,6.92773109 19.5529412,6.92773109 L22.3731092,6.92773109 L16.4705882,1.21008403 Z" id="Documento_Archivo-Illustrator_1Light"></path>
        </g>
    </g>
</svg>

<svg width="24" height="24" viewBox="0 0 24 24" xmlns="http://www.w3.org/2000/svg"><path d="M16.31 0c.218 0 .423.084.58.235l6.492 6.283a.82.82 0 01.201.39c.024.06.04.127.04.195v15.075c0 .783-.675 1.446-1.475 1.446H7.224c-.787 0-1.48-.676-1.48-1.446l.044-3.644H2.72C1.22 18.534 0 17.314 0 15.812v-5.015a2.723 2.723 0 012.72-2.723h3.025V1.445C5.745.69 6.447 0 7.224 0h9.085zm-.831.995H7.22c-.222 0-.487.245-.487.454v6.625h8.047c1.499 0 2.72 1.22 2.72 2.723v5.015a2.723 2.723 0 01-2.72 2.722h-8l-.044 3.65c0 .22.246.448.488.448h14.924c.249 0 .484-.222.484-.454V7.923h-3.08c-1.176 0-2.19-.38-2.93-1.1-.746-.719-1.143-1.71-1.143-2.86V.995zm-.696 8.067H2.72c-.95 0-1.727.777-1.727 1.731v5.015a1.73 1.73 0 001.727 1.731h12.064c.951 0 1.728-.776 1.728-1.73v-5.016a1.73 1.73 0 00-1.728-1.73zm-6.356 1.936l1.647 4.565H8.958l-.38-1.146H7.096l-.353 1.146h-.995l1.533-4.565h1.146zm3.234 0v4.565h-1.043v-4.565h1.043zm-3.832 1.14h-.014l-.474 1.523h.988l-.5-1.523zM16.47 1.21v2.75c0 .874.289 1.616.84 2.148.555.534 1.331.82 2.242.82h2.82L16.471 1.21z" fill="#5CB615" fill-rule="nonzero"/></svg>
